X: 7326
T: Cliff's Edge
R: hornpipe
M: 4/4
K: Dmajor
|:F^G|Adcd AFDF|E^DEG B2 e=d|cded cAGE|F^EFG A2 F^G|
Adcd AFDF|E^DEG B2 e=d|cege cAge|d2 D2 D2:|
|:cd|^decA GEge|^efdA F2 af|gecA ^GA=GE|DE^EF d2 cd|
^decA GEge|^efdA a2 ba|gecA ^GA=ge|d2 D2 D2:|

